public/assets/images/icons/grey/add/wizard.svg

<svg width="16" height="16" xmlns="http://www.w3.org/2000/svg" viewBox="0 0 16 16" shape-rendering="geometricPrecision" fill="#6e6e6e"><defs><mask id="a"><rect fill="#fff" width="100%" height="100%"/><path fill="#000" d="M14.782 1.217V-1h-3.564v2.217H9V4.78h2.218v2.221h3.564V4.78H17V1.217z"/></mask></defs><path fill="#cb1800" d="M16 2.217h-2.218V0h-1.564v2.217H10V3.78h2.218v2.221h1.564V3.78H16z"/><g mask="url(#a)"><path d="M14.182 12.821L8.715 7.353l-.834-.833-.833.833-.718.718-.834.834.834.833 5.467 5.467.834.834.833-.834.718-.718.834-.834-.834-.832zm-5.514-2.186L6.921 8.887l.943-.943 1.747 1.747-.943.944zM3.108 8.848l-.507 1.357-1.357.506 1.357.507.507 1.357.507-1.357 1.357-.507-1.357-.506zM4.938 5.26l.715-1.915 1.914-.715-1.914-.715L4.938 0l-.716 1.915-1.914.715 1.914.715zM10.584 6.142l.47-1.257 1.256-.469-1.256-.47-.47-1.256-.469 1.256-1.256.47 1.256.469z"/></g></svg>

<?xml version="1.0"?><!DOCTYPE svg PUBLIC "-//W3C//DTD SVG 1.1//EN" "http://www.w3.org/Graphics/SVG/1.1/DTD/svg11.dtd"><svg width="16px" height="16px" xmlns="http://www.w3.org/2000/svg" viewBox="0 0 16 16" shape-rendering="geometricPrecision" fill="#6e6e6e"><defs><mask id="add-path"><rect fill="#fff" width="100%" height="100%"/><polygon points="14.782,1.217 14.782,-1 11.218,-1 11.218,1.217 9,1.217 9,4.78 11.218,4.78 11.218,7.001 14.782,7.001 14.782,4.78 17,4.78 17,1.217 " fill="#000"/></mask></defs><polygon points="16,2.217 13.782,2.217 13.782,0 12.218,0 12.218,2.217 10,2.217 10,3.78 12.218,3.78 12.218,6.001 13.782,6.001 13.782,3.78 16,3.78 " fill="#cb1800"/><g mask="url(#add-path)"><g><path d="M14.182,12.821L8.715,7.353L7.881,6.52L7.048,7.353L6.33,8.071L5.496,8.905L6.33,9.738l5.467,5.467l0.834,0.834 l0.833-0.834l0.718-0.718l0.834-0.834L14.182,12.821z M8.668,10.635L6.921,8.887l0.943-0.943l1.747,1.747L8.668,10.635z"/></g><g><polygon points="3.108,8.848 2.601,10.205 1.244,10.711 2.601,11.218 3.108,12.575 3.615,11.218 4.972,10.711 3.615,10.205"/></g><g><polygon points="4.938,5.26 5.653,3.345 7.567,2.63 5.653,1.915 4.938,0 4.222,1.915 2.308,2.63 4.222,3.345"/></g><g><polygon points="10.584,6.142 11.054,4.885 12.31,4.416 11.054,3.946 10.584,2.69 10.115,3.946 8.859,4.416 10.115,4.885"/></g></g></svg>
